offer/images/shopzie.svg

<svg height="28" viewBox="0 0 709 28" width="709" xmlns="http://www.w3.org/2000/svg"><g fill="none" fill-rule="evenodd"><path d="m157 9h552v3h-552z" fill="#fef0e7" fill-rule="nonzero"/><path d="m157 15h552v3h-552z" fill="#fef0e7" fill-rule="nonzero"/><g><g fill="#000"><path d="m38 20.0285011 1.2482497-1.5962682c1.2835473 1.0026656 2.6120187 1.6946894 4.405776 1.6946894 1.9574095 0 2.9296966-.9995899 2.9296966-2.2206274 0-1.4732418-1.7616686-2.1222063-3.4110269-2.7127333-2.092182-.7320074-4.4507001-1.7192946-4.4507001-4.1306131 0-2.29136761 1.9253209-4.0629485 5.1341891-4.0629485 1.6909742.02299737 3.3249388.58944879 4.6400233 1.60857084l-1.2065344 1.53783066c-1.0300467-.72585608-2.0857643-1.27332379-3.4046091-1.27332379-1.8803968 0-2.7467912.96268198-2.7467912 2.05146609 0 1.3625179 1.6204785 1.879229 3.311552 2.4820586 2.1531505.7781423 4.550175 1.6177978 4.550175 4.3428337 0 2.3190486-1.9253209 4.2505639-5.4550758 4.2505639-2.0274653-.0385708-3.9816951-.7333976-5.5449242-1.9714989z"/><path d="m52 0h2.3252753v5.74519583l-.082729 2.94499047c1.2822993-1.29382426 2.6739189-2.37201115 4.5619125-2.37201115 2.8955143 0 4.1955412 1.949978 4.1955412 5.60349125v9.0783336h-2.3252753v-8.7641191c0-2.66774242-.7741069-3.81062052-2.5941445-3.81062052-1.4034381 0-2.3784583.74856975-3.7553049 2.19950122v10.3752384h-2.3252753z"/><path d="m66 14.5199754c0-4.76951443 3.2939268-7.5199754 6.9935095-7.5199754 3.6995828 0 7.0064905 2.75046097 7.0064905 7.5199754 0 4.7695145-3.297172 7.4800246-6.9967548 7.4800246-3.6995827 0-7.0032452-2.7381684-7.0032452-7.4800246zm11.3583681 0c0-3.275968-1.7589244-5.50399507-4.3551229-5.50399507-2.5961984 0-4.3616133 2.22802707-4.3616133 5.50399507 0 3.2759681 1.7589244 5.4671174 4.3551229 5.4671174 2.5961984 0 4.3518776-2.1911493 4.3518776-5.4671174z" fill-rule="nonzero"/><path d="m84 7.35889434h2.0815324l.2138998 1.67588052h.0830059c1.3408645-1.0891663 3.0137525-2.03477486 4.7345285-2.03477486 3.8310413 0 5.8870334 2.91172537 5.8870334 7.3963442 0 4.949621-3.0392927 7.8363798-6.4329568 7.8363798-1.3600196 0-2.7519646-.624164-4.1151768-1.6821221l.0670432 2.5341061v4.915292h-2.5125245zm10.3980845 7.05929556c0-3.2019616-1.1205796-5.34908602-3.9172397-5.34908602-1.2578586 0-2.5252947.67409719-3.9683202 1.97860012v7.6085599c1.3440569 1.1047704 2.6338408 1.5104771 3.6171414 1.5104771 2.455059 0 4.2684185-2.1627285 4.2684185-5.7485511z" fill-rule="nonzero"/><path d="m99 19.7357558 7.638195-10.80627827h-6.7922813v-1.92947753h9.9012483v1.26725435l-7.638195 10.80326815h7.891033v1.9294775h-11z"/><path d="m113 2.61367754c0-.98278986.875-1.61367754 2-1.61367754s2 .63405797 2 1.61367754c-.064152.91193595-.940517 1.6231884-2 1.6231884s-1.935848-.71125245-2-1.6231884zm.529412 4.64130434h2.878676v14.74501812h-2.893382z" fill-rule="nonzero"/><path d="m118 14.5199754c0-4.65273508 3.359435-7.5199754 6.886841-7.5199754 3.906167 0 6.112854 2.61831592 6.112854 6.7086663.004278.4604045-.036512.9202116-.121861 1.3736939h-10.315442c.187734 3.0270436 2.170459 4.9907805 5.09185 4.9907805 1.364977-.0092948 2.694408-.4070562 3.810653-1.1401352l.928785 1.5857407c-1.488583.9566494-3.251439 1.4728148-5.058914 1.4812538-4.084019 0-7.334766-2.7842655-7.334766-7.4800246zm10.710669-1.1708666c0-2.8641672-1.383297-4.42224955-3.777718-4.42224955-2.15399 0-4.077431 1.61339885-4.393613 4.42224955z" fill-rule="nonzero"/></g><path d="m24.3096612 21h-2.3096612l4.8966123-20.1161364 1.0830615-.8838636h5.9568381l1.0634881 1.53402768-1.2951066 4.26052218-1.0667504.81794836h-2.6293601l.5774153-2.34897989h1.2363865l.5806775-1.91453845h-3.5558343z" fill="#ff5325"/><path d="m18.9790265 22h-15.58527897l-.60150376-2.5436544h15.36683813l1.1523546-4.8183618h-16.78512071l-1.0605461-1.0077408-1.46576969-8.09756973 1.0605461-1.53267327h22.9394539l-.5666799 2.54041404h-21.03363668l1.00672734 5.55391536h17.33597154l1.044717 1.6169217-1.7601899 7.3587759z" fill="#ff5325"/><circle cx="8" cy="26" fill="#ff5325" r="2"/><circle cx="22" cy="26" fill="#ff5325" r="2"/></g></g></svg>

<?xml version="1.0" encoding="UTF-8"?>
<svg width="709px" height="28px" viewBox="0 0 709 28" version="1.1" xmlns="http://www.w3.org/2000/svg" xmlns:xlink="http://www.w3.org/1999/xlink">
    <!-- Generator: Sketch 52.2 (67145) - http://www.bohemiancoding.com/sketch -->
    <title>Group 13</title>
    <desc>Created with Sketch.</desc>
    <g id="Page-1" stroke="none" stroke-width="1" fill="none" fill-rule="evenodd">
        <g id="offer" transform="translate(-150.000000, -8590.000000)">
            <g id="Group-13" transform="translate(150.000000, 8590.000000)">
                <rect id="Rectangle-Copy-4" fill="#FEF0E7" fill-rule="nonzero" x="157" y="9" width="552" height="3"></rect>
                <rect id="Rectangle-Copy-25" fill="#FEF0E7" fill-rule="nonzero" x="157" y="15" width="552" height="3"></rect>
                <g id="dark">
                    <path d="M38,20.0285011 L39.2482497,18.4322329 C40.531797,19.4348985 41.8602684,20.1269223 43.6540257,20.1269223 C45.6114352,20.1269223 46.5837223,19.1273324 46.5837223,17.9062949 C46.5837223,16.4330531 44.8220537,15.7840886 43.1726954,15.1935616 C41.0805134,14.4615542 38.7219953,13.474267 38.7219953,11.0629485 C38.7219953,8.77158089 40.6473162,7 43.8561844,7 C45.5471586,7.02299737 47.1811232,7.58944879 48.4962077,8.60857084 L47.2896733,10.1464015 C46.2596266,9.42054542 45.203909,8.87307771 43.8850642,8.87307771 C42.0046674,8.87307771 41.138273,9.83575969 41.138273,10.9245438 C41.138273,12.2870617 42.7587515,12.8037728 44.449825,13.4066024 C46.6029755,14.1847447 49,15.0244002 49,17.7494361 C49,20.0684847 47.0746791,22 43.5449242,22 C41.5174589,21.9614292 39.5632291,21.2666024 38,20.0285011 Z" id="Path" fill="#000000"></path>
                    <path d="M52,0 L54.3252753,0 L54.3252753,5.74519583 L54.2425463,8.6901863 C55.5248456,7.39636204 56.9164652,6.31817515 58.8044588,6.31817515 C61.6999731,6.31817515 63,8.26815315 63,11.9216664 L63,21 L60.6747247,21 L60.6747247,12.2358809 C60.6747247,9.56813848 59.9006178,8.42526038 58.0805802,8.42526038 C56.6771421,8.42526038 55.7021219,9.17383013 54.3252753,10.6247616 L54.3252753,21 L52,21 L52,0 Z" id="Path" fill="#000000"></path>
                    <path d="M66,14.5199754 C66,9.75046097 69.2939268,7 72.9935095,7 C76.6930923,7 80,9.75046097 80,14.5199754 C80,19.2894899 76.702828,22 73.0032452,22 C69.3036625,22 66,19.2618316 66,14.5199754 Z M77.3583681,14.5199754 C77.3583681,11.2440074 75.5994437,9.01598033 73.0032452,9.01598033 C70.4070468,9.01598033 68.6416319,11.2440074 68.6416319,14.5199754 C68.6416319,17.7959435 70.4005563,19.9870928 72.9967548,19.9870928 C75.5929532,19.9870928 77.3486324,17.7959435 77.3486324,14.5199754 L77.3583681,14.5199754 Z" id="Shape" fill="#000000" fill-rule="nonzero"></path>
                    <path d="M84,7.35889434 L86.0815324,7.35889434 L86.2954322,9.03477486 L86.3784381,9.03477486 C87.7193026,7.94560856 89.3921906,7 91.1129666,7 C94.9440079,7 97,9.91172537 97,14.3963442 C97,19.3459652 93.9607073,22.232724 90.5670432,22.232724 C89.2070236,22.232724 87.8150786,21.60856 86.4518664,20.5506019 L86.5189096,23.084708 L86.5189096,28 L84.0063851,28 L84,7.35889434 Z M94.3980845,14.4181899 C94.3980845,11.2162283 93.2775049,9.06910388 90.4808448,9.06910388 C89.2229862,9.06910388 87.9555501,9.74320107 86.5125246,11.047704 L86.5125246,18.6562639 C87.8565815,19.7610343 89.1463654,20.166741 90.129666,20.166741 C92.584725,20.166741 94.3980845,18.0040125 94.3980845,14.4181899 Z" id="Shape" fill="#000000" fill-rule="nonzero"></path>
                    <polygon id="Path" fill="#000000" points="99 19.7357558 106.638195 8.92947753 99.8459137 8.92947753 99.8459137 7 109.747162 7 109.747162 8.26725435 102.108967 19.0705225 110 19.0705225 110 21 99 21"></polygon>
                    <path d="M113,2.61367754 C113,1.63088768 113.875,1 115,1 C116.125,1 117,1.63405797 117,2.61367754 C116.935848,3.52561349 116.059483,4.23686594 115,4.23686594 C113.940517,4.23686594 113.064152,3.52561349 113,2.61367754 Z M113.529412,7.25498188 L116.408088,7.25498188 L116.408088,22 L113.514706,22 L113.529412,7.25498188 Z" id="Shape" fill="#000000" fill-rule="nonzero"></path>
                    <path d="M118,14.5199754 C118,9.86724032 121.359435,7 124.886841,7 C128.793008,7 130.999695,9.61831592 130.999695,13.7086663 C131.003973,14.1690708 130.963183,14.6288779 130.877834,15.0823602 L120.562392,15.0823602 C120.750126,18.1094038 122.732851,20.0731407 125.654242,20.0731407 C127.019219,20.0638459 128.34865,19.6660845 129.464895,18.9330055 L130.39368,20.5187462 C128.905097,21.4753956 127.142241,21.991561 125.334766,22 C121.250747,22 118,19.2157345 118,14.5199754 Z M128.710669,13.3491088 C128.710669,10.4849416 127.327372,8.92685925 124.932951,8.92685925 C122.778961,8.92685925 120.85552,10.5402581 120.539338,13.3491088 L128.710669,13.3491088 Z" id="Shape" fill="#000000" fill-rule="nonzero"></path>
                    <polygon id="Path" fill="#FF5325" points="24.3096612 21 22 21 26.8966123 0.883863604 27.9796738 0 33.9365119 0 35 1.53402768 33.7048934 5.79454986 32.638143 6.61249822 30.0087829 6.61249822 30.5861982 4.26351833 31.8225847 4.26351833 32.4032622 2.34897988 28.8474279 2.34897988"></polygon>
                    <polygon id="Path" fill="#FF5325" points="18.9790265 22 3.39374753 22 2.79224377 19.4563456 18.1590819 19.4563456 19.3114365 14.6379838 2.52631579 14.6379838 1.46576969 13.630243 0 5.53267327 1.0605461 4 24 4 23.4333201 6.54041404 2.39968342 6.54041404 3.40641076 12.0943294 20.7423823 12.0943294 21.7870993 13.7112511 20.0269094 21.070027"></polygon>
                    <circle id="Oval" fill="#FF5325" cx="8" cy="26" r="2"></circle>
                    <circle id="Oval" fill="#FF5325" cx="22" cy="26" r="2"></circle>
                </g>
            </g>
        </g>
    </g>
</svg>
